T: Chalk Sunday
M: 6/8
L: 1/8
K: Gmaj
ABA cBA | cde a2 f | ecA BAF | BcB B2 c | ABA cBA | cde a2 f | ecA BAF | ABA A2 :|aba afe | fef agf | ecA BAF | BcB Bfg | aba age | fef a2 f | ecA BAF | ABA A2 :|GAG BAG | Bcd g2 e | dBG AGE | ABA A2 B |GAG BAG | Bcd g2 e | dBG AGE | GAG G2 :|gag ged | ede gfe | dBG AGE | ABA Aef |gag gfd | ede g2 e | dBG AGE | GAG G2 :|
